icons/svg/video-layout-stack_24.svg

<svg width="24" height="24" viewBox="0 0 24 24" fill="none" xmlns="http://www.w3.org/2000/svg">
<path fill-rule="evenodd" clip-rule="evenodd" d="M1 10H23V18.5C23 19.327 22.327 20 21.5 20H2.5C1.673 20 1 19.327 1 18.5V10ZM1 5.5C1 4.673 1.673 4 2.5 4H8V9H1V5.5ZM15 4H9V9H15V4ZM21.5 4C22.327 4 23 4.673 23 5.5V9H16V4H21.5ZM2.5 21H21.5C22.878 21 24 19.879 24 18.5V5.5C24 4.121 22.878 3 21.5 3H2.5C1.122 3 1.25705e-06 4.121 1.13649e-06 5.5L0 18.5C-1.20556e-07 19.879 1.122 21 2.5 21Z" fill="#121212"/>
</svg>

<?xml version="1.0" encoding="utf-8"?>
<!-- Generator: Adobe Illustrator 25.0.0, SVG Export Plug-In . SVG Version: 6.00 Build 0)  -->
<svg version="1.1" id="Layer_1" xmlns="http://www.w3.org/2000/svg" xmlns:xlink="http://www.w3.org/1999/xlink" x="0px" y="0px"
	 viewBox="0 0 24 24" style="enable-background:new 0 0 24 24;" xml:space="preserve">
<style type="text/css">
	.st0{fill-rule:evenodd;clip-rule:evenodd;fill:#121212;}
</style>
<path class="st0" d="M1,10h22v8.5c0,0.8-0.7,1.5-1.5,1.5h-19C1.7,20,1,19.3,1,18.5V10z M1,5.5C1,4.7,1.7,4,2.5,4H8v5H1V5.5z M15,4H9
	v5h6V4z M21.5,4C22.3,4,23,4.7,23,5.5V9h-7V4H21.5z M2.5,21h19c1.4,0,2.5-1.1,2.5-2.5v-13C24,4.1,22.9,3,21.5,3h-19
	C1.1,3,0,4.1,0,5.5l0,13C0,19.9,1.1,21,2.5,21z"/>
</svg>
